X:1
T:Acht Lieder
T:Nachtlied
T:Adolf Jensen
T:Emanuel Geibel
T:Nachtlied
T:Nachtlied aus Acht Lieder, Op. 28 Nr. 8 
T:CPDL - Creative Commons Attribution Non Commercial 3.0
T:CPDL - Creative Commons Attribution Non Commercial 3.0
T:CPDL - Creative Commons Attribution Non Commercial 3.0
C:Adolf Jensen
Z:Emanuel Geibel
Z:CPDL - Creative Commons Attribution Non Commercial 3.0
%%score [ ( 1 2 ) ( 3 4 ) ]
L:1/8
Q:1/4=80
M:4/4
K:Bb
V:1 treble nm="Sopran\nAlt"
V:2 treble 
V:3 bass nm="Tenor\nBass"
V:4 bass 
V:1
"^Sehr getragen"!p! F2 | F3!<(! G/F/ =E2 F2!<)! |!>(! (d2 B2)!>)! F2!p! E2 | D2 D2 C2 C2 | %4
w: Der|Mond kommt _ still ge-|gan- * gen mit|sei- nem gold- nen|
 F4- F z F2 | F2 B2 (A2 G)F | F4 =E2 E2 | F2 G2 A3 G | F2 z2 z4 | z2!p! B2 A3 ^G | ^G2 A2 z4 | %11
w: Schein, _ da|schläft in hol- * dem|Pran- gen die|mü- de Er- de|ein,|in hol- dem|Pran- gen|
 z2 B2 A3 ^G | A2 z!<(! F F2 =G2!<)! | A4 _A4 |!>(! _A2 G2!>)! z2!mf! G2 |!>(! e3 d c2 =B2!>)! | %16
w: die Er- de|ein. Im Traum die|Wip- fel|we- ben, die|Quel- len rau- schen|
!p! c2 G4 GG |!<(! F4 F2 F2!<)! |!>(! F4!>)! =E2 E2 | (F2 B2 A2) c2 | B2 F2 A3 G | F6 F2 | %22
w: sacht; sin- gen- de|En- gel durch-|schwe- ben die|blau- * * e|Ster- nen- nacht, die|Ster- nen-|
 F4- F z F2 | F3 G/F/!<(! =E2 F2!<)! |!>(! (d2 B2) F2!>)!!p! E2 | D2 D2 C2 C2 | F4- F z F2 | %27
w: nacht. _ Und|auf den _ Lüf- ten|schwan- * ken aus|man- chem treu- en|Sinn _ viel|
!<(! F2 B2 A2!<)! G>F |!>(! F4!>)! =E2 E2- | E2 F>G A3 G | F2 z2 z4 | z2!p! B2- (3B2 A3 ^G | %32
w: tau- send stil- le Ge-|dan- ken ü-|* ber die Schlä- fer|hin,|ü- * ber die|
 ^G2 A2 z4 | z2 B2 A3 ^G | A2 z!<(! F F2!<)! FG | A4 _A3!>(! A | _A2!>)! G2 z2!mf! G2 | %37
w: Schlä- fer,|die Schlä- fer|hin. Und drun- ten im|Ta- le, da|fun- keln die|
 e2!>(! dd c2 =B2!>)! | c2!p! G4 GG | F4 F2 F2 |!>(! F4 =E2!>)! E2 | F2 B2 A2 cc | %42
w: Fen- ster vor trau- tem|Haus; ich a- ber|bli- cke im|Dun- keln, im|Dun- keln still in die|
!<(! (B2 D2!<)! A2)!mf! G2- |!>(! G2 F>=E!>)! E2!p! F2- | F2 D>D _E3 D | D4- D z |] %46
w: Welt, _ _ still|_ in die Welt, still|_ in die Welt hin-|aus. _|
V:2
 D2 | D3 D ^C2 D2 | D4 D2 _E2 | D2 D2 C2 A,2 | (B,4 E) x E2 | D2 F2 =E3 F | _D4 D2 D2 | %7
w: |||||||
 F2 F2 =E3 E | F2 x2 x4 | x2 =E2 E3 E | =E2 F2 x4 | x2 =E2 E3 E | F2 x C C2 F2 | F4 F4 | %14
w: |||||||
 D2 D2 x2 D2 | C3 D _E2 D2 | C2 E4 EE | E4 E2 E2 | D4 ^C2 C2 | DE =EF _E2 E2 | (D4 ^C3) C | %21
w: |||||blau- * e _ Ster- nen-|nacht. _ _|
 (D4 B,2) C2 | D4- D x D2 | D3 D ^C2 D2 | D4 D2 E2 | D2 D2 C2 A,2 | (B,4 E) x E2 | D2 DF =E2 E>F | %28
w: _ _ _|||||||
 _D4 D2 D2- | D2 C>F =E3 E | F2 x2 x4 | x2 =E2- (3E2 E3 E | =E2 F2 x4 | x2 =E2 E3 E | %34
w: ||||||
 F2 x C C2 CF | F4 F3 F | D2 D2 x2 D2 | C2 DD _E2 D2 | C2 E4 EE | E4 E2 E2 | D4 ^C2 C2 | %41
w: |||||||
 DE =EF _E2 EE | (D4 ^C2) C2- | C2 ^C>C C2 D2- | D2 B,>B, A,3 A, | B,4- B, x |] %46
w: |||||
V:3
!p! B,2 | B,3!<(! F, G,2 F,2!<)! |!>(! F,4!>)! B,2!p! B,2 | B,2 B,2 A,2 F,2 | (F,4 A,) z A,2 | %5
w: |||||
 B,2 D2 _D3 D | _D4 B,2 B,2 | C2 =D2 C3 B, | A,2 z2 z4 | z2!p! G,2 A,3 B, | B,2 A,2 z4 | %11
w: ||||||
 z2 G,2 A,3 B, | A,2 z!<(! A, A,2 B,2!<)! | C4 C4 |!>(! C2 =B,2!>)! z2!mf! B,2 | %15
w: ||||
!>(! G,3 _A, G,2 F,2!>)! |!p! (E,2 G,2 C2 B,2) |!<(! A,2 B,B, =B,2 C!<)!C |!>(! B,4!>)! B,2 B,2 | %19
w: ||||
 B,C ^CD =C2 A,2 | B,4- B,3 B, | (B,4 G,2) A,2 | B,4- B, z F,2 | F,3 F,!<(! G,2 F,2!<)! | %24
w: |||||
!>(! F,4 B,2!>)!!p! B,2 | B,2 B,2 A,2 F,2 | (F,4 A,) z A,2 |!<(! B,2 F,D _D2!<)! D>D | %28
w: ||||
!>(! G,4!>)! G,2 G,2- | G,2 F,>D C3 B, | A,2 z2 z4 | z2!p! G,2- (3G,2 A,3 B, | B,2 A,2 z4 | %33
w: |||||
 z2 G,2 A,3 B, | A,2 z!<(! A, A,2!<)! A,B, | C4 C3!>(! C | C2!>)! =B,2 z2!mf! B,2 | %37
w: ||||
 G,2!>(! _A,A, G,2 G,2!>)! | E,2!p! G,2 C2 B,2 | (A,2 B,2) =B,2 C2 |!>(! _B,4 B,2!>)! B,2 | %41
w: |* ich a- ber|||
 B,C ^CD =C2 A,A, |!<(! B,6!<)!!mf! B,2- |!>(! B,2 B,>B,!>)! B,2!p! B,2- | B,2 F,>^F, G,3 =F, | %45
w: ||||
 F,4- F, z |] %46
w: |
V:4
 B,,2 | B,,3 B,, B,,2 B,,2 | B,,4 B,,2 G,2 | F,2 F,2 F,2 E,2 | (D,4 C,) x F,2 | %5
w: |||||
 B,,2 B,,2 B,,3 B,, | B,,4 B,,2 B,,2 | A,,2 B,,2 C,3 C, | F,2 A,,2 D,2 _D,2 | C,4 C,4- | %10
w: |||* in hol- dem|Pran- gen|
 C,2 F,2 A,,2 D,2 | _D,4 C,4 | F,2 x F, F,2 F,2 | F,4 =D,4 | G,4 ^F,2 =F,2 | E,3 F, G,2 G,,2 | %16
w: _ die mü- de|Er- de|ein. * * *||we- ben, *||
 C,8 | F,2 G,G, ^G,2 A,A, | B,2 D,D, A,2 G,2 | F,6 ^F,2 | G,2 =F,2 =E,3 E, | F,6 F,2 | %22
w: sacht;|sin- gen- de En- gel durch-|schwe- ben die Nacht, die|blau- e|Ster- nen- nacht. *||
 B,,4- B,, x B,,2 | B,,3 B,, B,,2 B,,2 | B,,4 B,,2 G,2 | F,2 F,2 F,2 E,2 | (D,4 C,) x F,2 | %27
w: |||||
 B,,2 B,,2 B,,2 B,,>B,, | B,,4 B,,2 B,,2- | B,,2 A,,>B,, C,3 C, | F,2 A,,2 D,2 _D,>D, | C,4 C,4- | %32
w: |||* viel stil- le Ge-|dan- ken|
 C,2 F,2- (3F,2 A,,2 =D,2 | _D,4 C,4 | F,2 x F, F,2 F,F, | F,4 D,3 D, | G,4 ^F,2 =F,2 | %37
w: _ ü- * ber die|Schlä- fer|hin. * * * *|* * da|fun- keln die|
 E,2 F,F, G,2 G,,2 | C,6 C,2 | (F,2 G,2) ^G,2 A,A,, | (B,,2 D,2) A,2 G,2 | F,4 F,2 ^F,F, | %42
w: |* ich|bli- * cke * *|||
 (G,2 F,2) =E,2 E,2- | E,2 F,>G, (G,2 F,2) | [F,,F,]6 [F,,=F,]2 | B,,4- B,, x |] %46
w: Welt _ hin- aus,|_ still in die _|Welt hin-|aus. _|

